X:1
T:Title
%%score { ( 1 4 ) | ( 2 3 ) }
L:1/8
M:6/8
K:Eb
V:1 treble nm="Grand Piano"
V:4 treble 
V:2 bass 
V:3 bass 
V:1
 z3 z2[Q:1/4=100] B | B2 c BG[G,E] | [A,DF]3 [G,E]2 [B,EG] | [B,F]2 [=A,EF] [B,DB]2 [B,FA] | %4
[M:5/8] G-G- G3 |[M:1/8] B |[M:3/4] B2 cB G[G,E] | [A,DF]3 [G,E]2 [=A,E] | %8
 [B,EG]2 [B,EG]D- [DG][A,DF] |[M:5/8] E-E- E3 |[M:1/8] G |[M:3/4] A2 A c2 c | [GB]3 [Ge]2 [Ge] | %13
 d2 de dc |[M:5/8] [DB]-[DB]- [DB]3 |[M:1/8] [GB] |[M:3/4] [Ge]2 [GB][GB] AG | A2 B c2 [Ec] | %18
 [EB]2 [EG] [DG]2 [DF] |[M:5/8] E-E- E3 |[M:1/8] B |[M:3/4] [DB]2 [DB]B c[DB] | B3 G2 c | %23
 [=Ec]2 [Ec]c d[Ec] |[M:5/8] [Fc]-[Fc]- [Fc]3 |[M:1/8] [Ad] |[M:3/4] [Ge]2 [Gd]f e[EAc] | %27
 [EGB]3 [B,EG]2 [=A,E] | [B,EG]2 [B,EG]D- [DG][A,DF] |[M:5/8] [G,E]-[G,E]- [G,E]3 |] %30
V:2
 z3 z2 [E,G,E] | [E,G,E]2 [E,A,E] [E,E]-[E,B,E]E, | B,,3 E,2 E, | D,2 C, B,,2 D, | %4
[M:5/8] [E,B,E]-[E,B,E]- [E,B,E]3 |[M:1/8] [E,G,E] |[M:3/4] [E,G,E]2 [E,A,E][E,E]- [E,B,E]E, | %7
 B,,3 E,2 C, | B,,2 .B,,2 B,B,, |[M:5/8] [E,G,]-[E,G,]- [E,G,]3 |[M:1/8] [E,B,E] | %11
[M:3/4][K:treble] [A,CE]2 [A,CE] [A,EA]2 [A,EA] | [E,E]3 [E,B,]2 [E,B,] | z2 z C z2 | %14
[M:5/8] [B,,B,]-[B,,B,]- [B,,B,]3 |[M:1/8] [E,B,] |[M:3/4] z2 z B, z2 | C2 z2 z2 | %18
 [B,,G,]2 [B,,B,] [B,,B,]2 [B,,A,] |[M:5/8] [E,G,]-[E,G,]- [E,G,]3 |[M:1/8] [E,G,E] | %21
[M:3/4] [B,,F,]2 [B,,B,] [B,,A,]2 [B,,A,] | [E,G,E]3 [E,B,E]2 [E,G,E] | %23
 [C,G,]2 [C,C] [C,B,]2 [C,B,] |[M:5/8] [F,A,]-[F,A,]- [F,A,]3 |[M:1/8] [F,B,] | %26
[M:3/4] [E,B,]2 [E,=B,][K:treble] [A,CA]2 A, | E,3 E,2 C, | B,,2 .B,,2 B,B,, |[M:5/8] E,-E,- E,3 |] %30
V:3
 x6 | z3 .G,3 | x6 | x6 |[M:5/8] x5 |[M:1/8] x |[M:3/4] z2 z G, z2 | x6 | z2 z .B,,3 |[M:5/8] x5 | %10
[M:1/8] x |[M:3/4][K:treble] x6 | x6 | [F,B,F]2 [F,B,F][F,F]- [F,B,F][F,=A,E] |[M:5/8] x5 | %15
[M:1/8] x |[M:3/4] [E,B,]2 [E,B,]E,- [E,CF][E,_DE] | [A,E]2- [A,B,E] [A,E]2 [A,,A,] | x6 | %19
[M:5/8] x5 |[M:1/8] x |[M:3/4] x6 | x6 | x6 |[M:5/8] x5 |[M:1/8] x |[M:3/4] x3[K:treble] x3 | x6 | %28
 z2 z .B,,3 |[M:5/8] x5 |] %30
V:4
 x6 | x6 | x6 | x6 |[M:5/8] x5 |[M:1/8] x |[M:3/4] x6 | x6 | z2 z [A,F] z2 |[M:5/8] x5 |[M:1/8] x | %11
[M:3/4] x6 | x6 | x6 |[M:5/8] x5 |[M:1/8] x |[M:3/4] x6 | x6 | x6 |[M:5/8] x5 |[M:1/8] x | %21
[M:3/4] z2 z .D3 | x6 | z2 z .=E3 |[M:5/8] x5 |[M:1/8] x |[M:3/4] x6 | x6 | z2 z [A,F] z2 | %29
[M:5/8] x5 |] %30

